assets/icons/qvision/filter_7.svg

<svg xmlns="http://www.w3.org/2000/svg" height="24" viewBox="0 0 24 24" width="24"><path d="M0 0h24v24H0z" fill="none"/><path d="M3 5H1v16c0 1.1.9 2 2 2h16v-2H3V5zm18-4H7c-1.1 0-2 .9-2 2v14c0 1.1.9 2 2 2h14c1.1 0 2-.9 2-2V3c0-1.1-.9-2-2-2zm0 16H7V3h14v14zm-8-2l4-8V5h-6v2h4l-4 8h2z"/></svg>

<svg width="24" height="24" viewBox="0 0 24 24" fill="none" xmlns="http://www.w3.org/2000/svg">
<g clip-path="url(#clip0_147_3422)">
<path d="M3 5H1V21C1 22.1 1.9 23 3 23H19V21H3V5ZM21 1H7C5.9 1 5 1.9 5 3V17C5 18.1 5.9 19 7 19H21C22.1 19 23 18.1 23 17V3C23 1.9 22.1 1 21 1ZM21 17H7V3H21V17ZM13 15L17 7V5H11V7H15L11 15H13Z" fill="#323232"/>
</g>
<defs>
<clipPath id="clip0_147_3422">
<rect width="24" height="24" fill="white"/>
</clipPath>
</defs>
</svg>
